pce-cd/_inc/system.svg

<svg xmlns="http://www.w3.org/2000/svg"><g fill="#fff"><path d="m13.119 46.69c-.088 0-.18-.022-.262-.063-8.606-4.179-13.049-9.044-12.851-14.08.164-4.144 3.546-8.058 9.785-11.32 5.918-3.091 14.266-5.546 24.143-7.096.327-.051.636.173.69.504.05.327-.174.636-.505.687-20.001 3.145-32.609 9.763-32.906 17.275-.173 4.453 4.147 9.051 12.171 12.949.299.145.425.501.28.804-.107.214-.321.34-.545.34z"/><path d="m88.13 15.763c-.035 0-.066-.003-.098-.01-6.356-1.043-13.068-1.739-19.944-2.067-.334-.016-.59-.299-.574-.633.016-.331.306-.586.63-.574 6.924.331 13.68 1.034 20.084 2.083.327.054.551.366.498.694-.051.296-.306.507-.596.507z"/><path d="m69.14 56.967c-.17 0-.337 0-.507 0-.334 0-.602-.271-.599-.606 0-.33.268-.601.602-.601h.504c32.285 0 57.761-8.389 58.098-19.176.117-3.776-2.912-7.604-8.77-11.074-5.83-3.457-14.187-6.4-24.168-8.515-.324-.072-.532-.391-.463-.715.069-.328.388-.536.715-.467 10.104 2.143 18.587 5.137 24.53 8.66 6.256 3.706 9.492 7.907 9.363 12.149-.18 5.735-6.517 10.963-17.843 14.723-10.951 3.627-25.658 5.622-41.462 5.622z"/><path d="m80.066 25.557 15.927-12.139-18.707 7.469-5.259-5.474 1.676 7.582-15.927 12.142 18.71-7.472 5.256 5.474z"/><path d="m60.118 40.715c.227-1.122.646-.961 1.784-1.144l1.062-.164-.331 1.768-1.059.17c-1.141.18-1.642.486-1.456-.63zm-2.301-1.62-.825 4.444c-.227 1.213.142 1.601 1.308 1.418l6.759-1.075 1.45-7.79-6.76 1.072c-1.169.186-1.708.718-1.932 1.931zm42.906-7.011-.079.428 6.971-1.106c.551-.091 1.087-.646 1.197-1.248.11-.599-.242-1.018-.794-.929l-1.79.283-2.855.454-.725.113c-.838.136-1.755 1.088-1.925 2.005zm-48.912 20.089.057-.312c.239.019.561.114.838.07l7.248-1.135c-.271 1.444-2.181 1.806-5.093 2.269l-3.318.526-1.777 9.562 4.355-.691c10.727-1.058 14.808-6.602 16.119-13.21l13.069-2.073 2.108-11.336 1.062-.167c1.166-.186.992-.397.769.813l-1.929 10.368 9.385-1.487.129-.687c.706.312 1.535.422 2.411.283l16.229-2.571 1.513-8.146-1.053-.75c.911-1.078 1.623-2.399 1.828-3.508l.255-1.286c.81-4.802-3.621-6.078-5.641-5.757l-9.312 1.478c-1.648.261-3.466 1.409-4.787 2.934-1.223-1.21-3.11-1.68-4.207-1.507l-10.365 1.645 1.16 2.566 9.35-1.481c1.346-.218 2.25.321 2.496 1.389-.098.284-2.496 13.047-2.496 13.047l-3.356.532 1.799-9.662c.224-1.21-.141-1.601-1.307-1.415l-6.426 1.018-2.108 11.336-3.684.586 2.411-12.974-3.032-3.58-10.922 3.945 5.177-.819.082-.013-3.293 17.708c-.835 4.497-5.635 8.798-9.892 9.476l-4.355.69.659-3.542 3.315-.527c2.912-.463 6.192-3.378 6.759-6.425l.356-1.919-8.628 1.367c-1.85.294-2.855-.832-2.489-2.785l1.547-8.326c.274-1.478 1.194-2.704 2.429-3.347l.023-.22 4.329-3.331-2.53.425c-1.343.211-3.838 1.22-5.427 3.243-1.197-1.428-3.293-1.989-4.475-1.803l-9.302 1.478 1.519-8.149 6.785-1.075c3.611-.57 7.61-4.635 8.319-8.448l1.021-5.49c.709-3.823-1.976-6.823-5.587-6.249l-14.834 2.351-3.16 17.001-13.655 2.168c-1.157.183-2.282 1.324-2.505 2.547l-5.105 27.448c-.227 1.222.526 2.064 1.682 1.884l26.059-4.134 2.108-11.336 1.059-.17c1.169-.183.996-.391.769.819l-1.926 10.368zm-19.337-6.214-8.713 1.38.328-1.768 7.037-1.118 1.714-9.209-7.04 1.116.328-1.768 8.713-1.383zm-.529 2.833-.722 3.895-15.416 2.445 4.806-25.856 12.734-2.02-.658 3.542-9.051 1.437-1.38 7.437 7.371-1.169-.659 3.539-7.371 1.172-1.383 7.44zm17.71.974-3.687.583 1.797-9.659c.223-1.213-.142-1.604-1.308-1.421l-6.426 1.021-2.105 11.335-3.687.586 2.764-14.874.085-.016 12.233-1.938c1.85-.296 2.856.826 2.49 2.786zm23.96-18.24 3.605-.571-2.767 14.878-3.684.583 2.761-14.874zm22.359 7.012 1.279-6.883c.407-2.177 2.745-4.314 4.737-4.629l8.622-1.368c1.452-.23 2.461 1.393 2.165 2.981l-.423 2.212c-.296 1.592-1.919 3.278-3.368 3.508l-8.95 1.421-.126.804c-.174.914.435 1.626 1.273 1.493l9.999-1.594-.674 3.63-11.282 1.79c-1.992.312-3.653-1.188-3.252-3.365zm-53.333-19.287 1.251-6.731 4.692-.74c.615-.098.93.252.807.901l-.857 4.607c-.12.649-.587 1.122-1.201 1.223z"/><path d="m72.629 22.4-.996-3.943-.561.07-.18.97c-.126.675-.668 1.223-1.304 1.327l-3.854.611c-.637.101-1.003-.309-.877-.98l1.942-10.45c.126-.671.668-1.219 1.304-1.32l3.858-.611c.633-.101.999.305.872.977l-.248 1.329 7.793-1.238.296-1.591c.747-4.022-1.985-7.075-5.792-6.473l-7.456 1.182c-3.801.605-7.872 4.739-8.619 8.76l-2.074 11.156c-.746 4.021 1.986 7.075 5.793 6.47l2.492-.391z"/><path d="m78.153 20.02c.205-.545.343-.753.451-1.314l.264-1.418-3.101.492z"/><path d="m210.846 57.219s-25.334 0-40.712 0c-13.573 0-22.62-9.123-22.62-18.095s9.047-18.095 22.62-18.095h40.712v-9.048s-25.334 0-40.712 0c-18.098 0-31.668 11.761-31.668 27.143 0 15.381 13.57 27.142 31.668 27.142h40.712z"/><path d="m449.603 11.981h-27.142c-18.095 0-31.668 11.761-31.668 27.143 0 15.381 13.573 27.142 31.668 27.142h27.142c18.095 0 31.668-11.761 31.668-27.142 0-15.382-13.573-27.143-31.668-27.143zm0 45.238h-27.142c-13.57 0-22.621-9.123-22.621-18.095s9.051-18.095 22.621-18.095h27.142c13.573 0 22.617 9.123 22.617 18.095s-9.044 18.095-22.617 18.095z"/><path d="m260.608 11.981c-20.505 0-40.715 0-40.715 0v54.285h40.715c18.095 0 31.668-11.761 31.668-27.142 0-15.382-13.573-27.143-31.668-27.143zm0 45.238c-8.322 0-18.28 0-31.664 0v-36.19h31.664c13.573 0 22.621 9.123 22.621 18.095s-9.048 18.095-22.621 18.095z"/><path d="m373.703 39.124c4.522 0 9.048-6.533 9.048-11.058 0-9.048-4.522-16.085-13.57-16.085-9.047 0-54.288 0-54.288 0v54.288h9.051v-22.62h40.712c4.525 0 9.05 4.525 9.05 9.047v13.573h9.048s0-4.522 0-13.573c0-9.047-9.051-13.572-9.051-13.572zm-9.047-4.522c-9.048 0-40.712 0-40.712 0v-13.573h40.712c4.525 0 9.05 2.511 9.05 7.037-.003 4.525-4.525 6.536-9.05 6.536z"/><path d="m302.077 43.646c-2.499 0-4.522-2.023-4.522-4.522 0-2.496 2.026-4.522 4.522-4.522h3.394c2.499 0 4.522 2.026 4.522 4.522 0 2.499-2.023 4.522-4.522 4.522z"/><path d="m521.986 21.029v45.237h9.047v-45.237h9.051c4.519 0 13.569 0 13.569 9.047v36.19h9.048v-40.712c0-9.051-9.048-13.573-18.095-13.573-4.522 0-31.668 0-36.19 0-9.05 0-18.095 4.522-18.095 13.573v40.712h9.048s0-27.142 0-36.19c0-9.047 9.047-9.047 13.572-9.047z"/><path d="m586.244 19.623h3.366c6.028 0 10.39-3.079 10.39-10.005 0-4.45-2.82-9.618-8.903-9.618-4.452 0-14.348 0-18.797 0v6.923h13.636c1.944 0 4.125.325 4.125 2.695 0 2.247-1.734 3.079-3.738 3.079h-5.638c-10.118 0-11.344 7.223-11.344 12.86v4.456h30.158v-7.431h-20.068c-.003-3.46 3.845-2.959 6.813-2.959z"/></g></svg>

<?xml version="1.0" encoding="utf-8"?>
<svg version="1.2" xmlns="http://www.w3.org/2000/svg">
  <g>
    <path d="M 13.119 46.69 C 13.031 46.69 12.939 46.668 12.857 46.627 C 4.251 42.448 -0.192 37.583 0.006 32.547 C 0.17 28.403 3.552 24.489 9.791 21.227 C 15.709 18.136 24.057 15.681 33.934 14.131 C 34.261 14.08 34.57 14.304 34.624 14.635 C 34.674 14.962 34.45 15.271 34.119 15.322 C 14.118 18.467 1.51 25.085 1.213 32.597 C 1.04 37.05 5.36 41.648 13.384 45.546 C 13.683 45.691 13.809 46.047 13.664 46.35 C 13.557 46.564 13.343 46.69 13.119 46.69 Z" style="fill: rgb(255, 255, 255);"/>
    <path d="M 88.13 15.763 C 88.095 15.763 88.064 15.76 88.032 15.753 C 81.676 14.71 74.964 14.014 68.088 13.686 C 67.754 13.67 67.498 13.387 67.514 13.053 C 67.53 12.722 67.82 12.467 68.144 12.479 C 75.068 12.81 81.824 13.513 88.228 14.562 C 88.555 14.616 88.779 14.928 88.726 15.256 C 88.675 15.552 88.42 15.763 88.13 15.763 Z" style="fill: rgb(255, 255, 255);"/>
    <path d="M 69.14 56.967 C 68.97 56.967 68.803 56.967 68.633 56.967 C 68.299 56.967 68.031 56.696 68.034 56.361 C 68.034 56.031 68.302 55.76 68.636 55.76 C 68.636 55.76 68.636 55.76 68.636 55.76 C 68.803 55.76 68.973 55.76 69.14 55.76 C 101.425 55.76 126.901 47.371 127.238 36.584 C 127.355 32.808 124.326 28.98 118.468 25.51 C 112.638 22.053 104.281 19.11 94.3 16.995 C 93.976 16.923 93.768 16.604 93.837 16.28 C 93.906 15.952 94.225 15.744 94.552 15.813 C 104.656 17.956 113.139 20.95 119.082 24.473 C 125.338 28.179 128.574 32.38 128.445 36.622 C 128.265 42.357 121.928 47.585 110.602 51.345 C 99.651 54.972 84.944 56.967 69.14 56.967 Z" style="fill: rgb(255, 255, 255);"/>
    <polygon points="80.066 25.557 95.993 13.418 77.286 20.887 72.027 15.413 73.703 22.995 57.776 35.137 76.486 27.665 81.742 33.139" style="fill: rgb(255, 255, 255);"/>
    <path d="M 60.118 40.715 C 60.345 39.593 60.764 39.754 61.902 39.571 L 62.964 39.407 L 62.633 41.175 L 61.574 41.345 C 60.433 41.525 59.932 41.831 60.118 40.715 Z M 57.817 39.095 L 56.992 43.539 C 56.765 44.752 57.134 45.14 58.3 44.957 L 65.059 43.882 L 66.509 36.092 L 59.749 37.164 C 58.58 37.35 58.041 37.882 57.817 39.095 Z M 100.723 32.084 L 100.644 32.512 L 107.615 31.406 C 108.166 31.315 108.702 30.76 108.812 30.158 C 108.922 29.559 108.57 29.14 108.018 29.229 L 106.228 29.512 L 103.373 29.966 L 102.648 30.079 C 101.81 30.215 100.893 31.167 100.723 32.084 Z M 51.811 52.173 L 51.868 51.861 C 52.107 51.88 52.429 51.975 52.706 51.931 L 59.954 50.796 C 59.683 52.24 57.773 52.602 54.861 53.065 L 51.543 53.591 L 49.766 63.153 L 54.121 62.462 C 64.848 61.404 68.929 55.86 70.24 49.252 L 83.309 47.179 L 85.417 35.843 L 86.479 35.676 C 87.645 35.49 87.471 35.279 87.248 36.489 L 85.319 46.857 L 94.704 45.37 L 94.833 44.683 C 95.539 44.995 96.368 45.105 97.244 44.966 L 113.473 42.395 L 114.986 34.249 L 113.933 33.499 C 114.844 32.421 115.556 31.1 115.761 29.991 L 116.016 28.705 C 116.826 23.903 112.395 22.627 110.375 22.948 L 101.063 24.426 C 99.415 24.687 97.597 25.835 96.276 27.36 C 95.053 26.15 93.166 25.68 92.069 25.853 L 81.704 27.498 L 82.864 30.064 L 92.214 28.583 C 93.56 28.365 94.464 28.904 94.71 29.972 C 94.612 30.256 92.214 43.019 92.214 43.019 L 88.858 43.551 L 90.657 33.889 C 90.881 32.679 90.516 32.288 89.35 32.474 L 82.924 33.492 L 80.816 44.828 L 77.132 45.414 L 79.543 32.44 L 76.511 28.86 L 65.589 32.805 L 70.766 31.986 L 70.848 31.973 L 67.555 49.681 C 66.72 54.178 61.92 58.479 57.663 59.157 L 53.308 59.847 L 53.967 56.305 L 57.282 55.778 C 60.194 55.315 63.474 52.4 64.041 49.353 L 64.397 47.434 L 55.769 48.801 C 53.919 49.095 52.914 47.969 53.28 46.016 L 54.827 37.69 C 55.101 36.212 56.021 34.986 57.256 34.343 L 57.279 34.123 L 61.608 30.792 L 59.078 31.217 C 57.735 31.428 55.24 32.437 53.651 34.46 C 52.454 33.032 50.358 32.471 49.176 32.657 L 39.874 34.135 L 41.393 25.986 L 48.178 24.911 C 51.789 24.341 55.788 20.276 56.497 16.463 L 57.518 10.973 C 58.227 7.15 55.542 4.15 51.931 4.724 L 37.097 7.075 L 33.937 24.076 L 20.282 26.244 C 19.125 26.427 18 27.568 17.777 28.791 L 12.672 56.239 C 12.445 57.461 13.198 58.303 14.354 58.123 L 40.413 53.989 L 42.521 42.653 L 43.58 42.483 C 44.749 42.3 44.576 42.092 44.349 43.302 L 42.423 53.67 L 51.811 52.173 Z M 32.474 45.959 L 23.761 47.339 L 24.089 45.571 L 31.126 44.453 L 32.84 35.244 L 25.8 36.36 L 26.128 34.592 L 34.841 33.209 L 32.474 45.959 Z M 31.945 48.792 L 31.223 52.687 L 15.807 55.132 L 20.613 29.276 L 33.347 27.256 L 32.689 30.798 L 23.638 32.235 L 22.258 39.672 L 29.629 38.503 L 28.97 42.042 L 21.599 43.214 L 20.216 50.654 L 31.945 48.792 Z M 49.655 49.766 L 45.968 50.349 L 47.765 40.69 C 47.988 39.477 47.623 39.086 46.457 39.269 L 40.031 40.29 L 37.926 51.625 L 34.239 52.211 L 37.003 37.337 L 37.088 37.321 L 49.321 35.383 C 51.171 35.087 52.177 36.209 51.811 38.169 L 49.655 49.766 Z M 73.615 31.526 L 77.22 30.955 L 74.453 45.833 L 70.769 46.416 L 73.53 31.542 L 73.615 31.526 Z M 95.974 38.538 L 97.253 31.655 C 97.66 29.478 99.998 27.341 101.99 27.026 L 110.612 25.658 C 112.064 25.428 113.073 27.051 112.777 28.639 L 112.354 30.851 C 112.058 32.443 110.435 34.129 108.986 34.359 L 100.036 35.78 L 99.91 36.584 C 99.736 37.498 100.345 38.21 101.183 38.077 L 111.182 36.483 L 110.508 40.113 L 99.226 41.903 C 97.234 42.215 95.573 40.715 95.974 38.538 Z M 42.641 19.251 L 43.892 12.52 L 48.584 11.78 C 49.199 11.682 49.514 12.032 49.391 12.681 L 48.534 17.288 C 48.414 17.937 47.947 18.41 47.333 18.511 L 42.641 19.251 Z" style="fill: rgb(255, 255, 255);"/>
    <path d="M 72.629 22.4 L 71.633 18.457 L 71.072 18.527 L 70.892 19.497 C 70.766 20.172 70.224 20.72 69.588 20.824 L 65.734 21.435 C 65.097 21.536 64.731 21.126 64.857 20.455 L 66.799 10.005 C 66.925 9.334 67.467 8.786 68.103 8.685 L 71.961 8.074 C 72.594 7.973 72.96 8.379 72.833 9.051 L 72.585 10.38 L 80.378 9.142 L 80.674 7.551 C 81.421 3.529 78.689 0.476 74.882 1.078 L 67.426 2.26 C 63.625 2.865 59.554 6.999 58.807 11.02 L 56.733 22.176 C 55.987 26.197 58.719 29.251 62.526 28.646 L 65.018 28.255 L 72.629 22.4 Z" style="fill: rgb(255, 255, 255);"/>
    <path d="M 78.153 20.02 C 78.358 19.475 78.496 19.267 78.604 18.706 L 78.868 17.288 L 75.767 17.78 L 78.153 20.02 Z" style="fill: rgb(255, 255, 255);"/>
    <path d="M 210.846 57.219 C 210.846 57.219 185.512 57.219 170.134 57.219 C 156.561 57.219 147.514 48.096 147.514 39.124 C 147.514 30.152 156.561 21.029 170.134 21.029 C 180.385 21.029 195.467 21.029 210.846 21.029 L 210.846 11.981 C 210.846 11.981 185.512 11.981 170.134 11.981 C 152.036 11.981 138.466 23.742 138.466 39.124 C 138.466 54.505 152.036 66.266 170.134 66.266 C 190.64 66.266 210.846 66.266 210.846 66.266 L 210.846 57.219 Z" style="fill: rgb(255, 255, 255);"/>
    <path d="M 449.603 11.981 L 422.461 11.981 C 404.366 11.981 390.793 23.742 390.793 39.124 C 390.793 54.505 404.366 66.266 422.461 66.266 L 449.603 66.266 C 467.698 66.266 481.271 54.505 481.271 39.124 C 481.271 23.742 467.698 11.981 449.603 11.981 Z M 449.603 57.219 L 422.461 57.219 C 408.891 57.219 399.84 48.096 399.84 39.124 C 399.84 30.152 408.891 21.029 422.461 21.029 L 449.603 21.029 C 463.176 21.029 472.22 30.152 472.22 39.124 C 472.22 48.096 463.176 57.219 449.603 57.219 Z" style="fill: rgb(255, 255, 255);"/>
    <path d="M 260.608 11.981 C 240.103 11.981 219.893 11.981 219.893 11.981 L 219.893 66.266 C 219.893 66.266 245.227 66.266 260.608 66.266 C 278.703 66.266 292.276 54.505 292.276 39.124 C 292.276 23.742 278.703 11.981 260.608 11.981 Z M 260.608 57.219 C 252.286 57.219 242.328 57.219 228.944 57.219 L 228.944 21.029 C 238.997 21.029 250.603 21.029 260.608 21.029 C 274.181 21.029 283.229 30.152 283.229 39.124 C 283.229 48.096 274.181 57.219 260.608 57.219 Z" style="fill: rgb(255, 255, 255);"/>
    <path d="M 373.703 39.124 C 378.225 39.124 382.751 32.591 382.751 28.066 C 382.751 19.018 378.229 11.981 369.181 11.981 C 360.134 11.981 314.893 11.981 314.893 11.981 L 314.893 66.269 L 323.944 66.269 L 323.944 43.649 C 337.513 43.649 360.134 43.649 364.656 43.649 C 369.181 43.649 373.706 48.174 373.706 52.696 C 373.706 57.222 373.706 66.269 373.706 66.269 L 382.754 66.269 C 382.754 66.269 382.754 61.747 382.754 52.696 C 382.754 43.649 373.703 39.124 373.703 39.124 Z M 364.656 34.602 C 355.608 34.602 323.944 34.602 323.944 34.602 L 323.944 21.029 C 323.944 21.029 355.608 21.029 364.656 21.029 C 369.181 21.029 373.706 23.54 373.706 28.066 C 373.703 32.591 369.181 34.602 364.656 34.602 Z" style="fill: rgb(255, 255, 255);"/>
    <path d="M 302.077 43.646 C 299.578 43.646 297.555 41.623 297.555 39.124 C 297.555 36.628 299.581 34.602 302.077 34.602 L 305.471 34.602 C 307.97 34.602 309.993 36.628 309.993 39.124 C 309.993 41.623 307.97 43.646 305.471 43.646 L 302.077 43.646 Z" style="fill: rgb(255, 255, 255);"/>
    <path d="M 521.986 21.029 L 521.986 66.266 L 531.033 66.266 L 531.033 21.029 L 540.084 21.029 C 544.603 21.029 553.653 21.029 553.653 30.076 C 553.653 39.127 553.653 66.266 553.653 66.266 L 562.701 66.266 L 562.701 25.554 C 562.701 16.503 553.653 11.981 544.606 11.981 C 540.084 11.981 512.938 11.981 508.416 11.981 C 499.366 11.981 490.321 16.503 490.321 25.554 C 490.321 34.602 490.321 52.696 490.321 66.266 L 499.369 66.266 C 499.369 66.266 499.369 39.124 499.369 30.076 C 499.369 21.029 508.416 21.029 512.941 21.029 L 521.986 21.029 Z" style="fill: rgb(255, 255, 255);"/>
    <path d="M 586.244 19.623 C 586.244 19.623 585.16 19.623 589.61 19.623 C 595.638 19.623 600 16.544 600 9.618 C 600 5.168 597.18 0 591.097 0 C 586.645 0 576.749 0 572.3 0 L 572.3 6.923 C 572.3 6.923 581.486 6.923 585.936 6.923 C 587.88 6.923 590.061 7.248 590.061 9.618 C 590.061 11.865 588.327 12.697 586.323 12.697 L 580.685 12.697 C 570.567 12.697 569.341 19.92 569.341 25.557 L 569.341 30.013 L 599.499 30.013 L 599.499 22.582 L 579.431 22.582 C 579.428 19.122 583.276 19.623 586.244 19.623 Z" style="fill: rgb(255, 255, 255);"/>
  </g>
</svg>
